X: 69
T:Lange Wapper
M:6/8
L:1/8
S:As played for the dance outside the cathedral in Antwerpen
R:Jig
Z:Steve Mansfield
K:G
B | BAB GAB | ded B2c | ded cBA | BAG A2B | BAB GAB | ded B2c |
ded cBA |1 G3 G2 :|2 G3 GBd |: g2G f2G | e2G d2G | ded cBA |
GBe d2d | g2G f2G | e2Gd2G | ded cBA | G3 G3 :|
<end>
<start>
